svgs/regular/table-cells.svg

<svg xmlns="http://www.w3.org/2000/svg" viewBox="0 0 512 512"><!--! Font Awesome Pro 6.4.2 by @fontawesome - https://fontawesome.com License - https://fontawesome.com/license (Commercial License) Copyright 2023 Fonticons, Inc. --><path d="M360 80v88H464V96c0-8.8-7.2-16-16-16H360zm-48 0H200v88H312V80zM152 80H64c-8.8 0-16 7.2-16 16v72H152V80zM48 216v80H152V216H48zm0 128v72c0 8.8 7.2 16 16 16h88V344H48zm152 88H312V344H200v88zm160 0h88c8.8 0 16-7.2 16-16V344H360v88zM464 296V216H360v80H464zM0 96C0 60.7 28.7 32 64 32H448c35.3 0 64 28.7 64 64V416c0 35.3-28.7 64-64 64H64c-35.3 0-64-28.7-64-64V96zM200 296H312V216H200v80z"/></svg>

<svg xmlns="http://www.w3.org/2000/svg" viewBox="0 0 512 512"><!--! Font Awesome Pro 6.1.1 by @fontawesome - https://fontawesome.com License - https://fontawesome.com/license (Commercial License) Copyright 2022 Fonticons, Inc. --><path d="M0 96C0 60.65 28.65 32 64 32H448C483.3 32 512 60.65 512 96V416C512 451.3 483.3 480 448 480H64C28.65 480 0 451.3 0 416V96zM360 168H464V96C464 87.16 456.8 80 448 80H360V168zM312 80H200V168H312V80zM152 80H64C55.16 80 48 87.16 48 96V168H152V80zM48 216V296H152V216H48zM48 344V416C48 424.8 55.16 432 64 432H152V344H48zM200 432H312V344H200V432zM360 432H448C456.8 432 464 424.8 464 416V344H360V432zM464 296V216H360V296H464zM312 296V216H200V296H312z"/></svg>
